public/icons/icons8-info-squared.svg

<svg xmlns="http://www.w3.org/2000/svg" xmlns:xlink="http://www.w3.org/1999/xlink" viewBox="0,0,256,256" width="192px" height="192px"><g fill="#5e17eb" fill-rule="nonzero" stroke="none" stroke-width="1" stroke-linecap="butt" stroke-linejoin="miter" stroke-miterlimit="10" stroke-dasharray="" stroke-dashoffset="0" font-family="none" font-weight="none" font-size="none" text-anchor="none" style="mix-blend-mode: normal"><g transform="scale(10.66667,10.66667)"><path d="M18,21h-12c-1.657,0 -3,-1.343 -3,-3v-12c0,-1.657 1.343,-3 3,-3h12c1.657,0 3,1.343 3,3v12c0,1.657 -1.343,3 -3,3z" opacity="0.35"></path><path d="M10.5,7.491c0,-0.419 0.26,-1.491 1.508,-1.491c1.248,0 1.492,1.072 1.492,1.491c0,0.41 -0.278,1.509 -1.492,1.509c-1.214,0 -1.508,-1.099 -1.508,-1.509z"></path><path d="M12,18v0c-0.729,0 -1.32,-0.591 -1.32,-1.32v-4.36c0,-0.729 0.591,-1.32 1.32,-1.32v0c0.729,0 1.32,0.591 1.32,1.32v4.361c0,0.728 -0.591,1.319 -1.32,1.319z"></path></g></g></svg>

<svg xmlns="http://www.w3.org/2000/svg"  viewBox="0 0 24 24" width="192px" height="192px"><path d="M18,21H6c-1.657,0-3-1.343-3-3V6c0-1.657,1.343-3,3-3h12c1.657,0,3,1.343,3,3v12	C21,19.657,19.657,21,18,21z" opacity=".35"/><path d="M10.5,7.491C10.5,7.072,10.76,6,12.008,6S13.5,7.072,13.5,7.491C13.5,7.901,13.222,9,12.008,9S10.5,7.901,10.5,7.491z"/><path d="M12,18L12,18c-0.729,0-1.32-0.591-1.32-1.32v-4.36c0-0.729,0.591-1.32,1.32-1.32l0,0c0.729,0,1.32,0.591,1.32,1.32v4.361	C13.32,17.409,12.729,18,12,18z"/></svg>
